X:143
M:C|
L:1/8
K:D
fdec dABG|F2 D2 D2:||(3ABc|dAFA DFAd|edcB Aceg|fdAF DFAd|edcB A3A|

